logo/jasmine.svg

<?xml version="1.0" encoding="UTF-8" standalone="no" ?>
<svg width="256px" height="255px" viewBox="0 0 256 255" version="1.1" xmlns="http://www.w3.org/2000/svg" xmlns:xlink="http://www.w3.org/1999/xlink" preserveAspectRatio="xMidYMid">
    <g transform="translate(128.000000, 127.000000) scale(1, -1) translate(-128.000000, -127.000000) translate(0.000000, -1.000000)" fill="#8A4182">
        <path d="M118.267273,149.665989 L138.061818,149.665989 L142.98,156.398644 L142.98,209.126328 L113.352727,209.126328 L113.352727,156.39322 L118.267273,149.665989"></path>
        <path d="M105.508545,126.148701 L111.623636,144.865989 L106.705273,151.596836 L56.2712727,167.889718 L47.1172727,139.87435 L97.5567273,123.577853 L105.508545,126.148701"></path>
        <path d="M124.06,106.813107 L108.047636,118.383729 L100.088727,115.811073 L68.9203636,73.1516384 L92.8878182,55.8376497 L124.06,98.4985311 L124.06,106.813107"></path>
        <path d="M148.285455,118.385537 L132.269091,106.816723 L132.272727,98.4967232 L163.441818,55.8376497 L187.410909,73.1516384 L156.236364,115.814689 L148.285455,118.385537"></path>
        <path d="M144.701818,144.869605 L150.82,126.150508 L158.778182,123.581469 L209.212727,139.87435 L200.056364,167.891525 L149.62,151.595028 L144.701818,144.869605"></path>
        <path d="M128.170909,254.893559 C57.7094545,254.893559 0.383454545,197.901017 0.383454545,127.848136 C0.383454545,57.7697627 57.7094545,0.761310734 128.170909,0.761310734 C198.625455,0.761310734 255.945455,57.7697627 255.945455,127.848136 C255.945455,197.901017 198.625455,254.893559 128.170909,254.893559 L128.170909,254.893559 L128.170909,254.893559 Z M128.170909,229.168814 C184.44,229.168814 230.070909,183.811977 230.070909,127.848136 C230.070909,71.8662147 184.44,26.4894915 128.170909,26.4894915 C71.8827273,26.4894915 26.2578182,71.8662147 26.2578182,127.848136 C26.2578182,183.811977 71.8827273,229.168814 128.170909,229.168814 L128.170909,229.168814 Z"></path>
        <path d="M205.565455,99.6085876 L167.227273,111.996384 L169.761818,119.761356 L208.1,107.373559 L205.565455,99.6085876"></path>
        <path d="M156.669091,160.809944 L150.025455,165.608136 L173.718182,198.03661 L180.361818,193.238418 L156.669091,160.809944"></path>
        <path d="M100.071818,161.104633 L76.3821818,193.534915 L83.0263636,198.333107 L106.716,165.904633 L100.071818,161.104633"></path>
        <path d="M50.608,100.093107 L48.0718182,107.858079 L86.4061818,120.240452 L88.9425455,112.47548 L50.608,100.093107"></path>
        <path d="M123.807273,46.8411299 L132.018218,46.8411299 L132.018218,86.9259209 L123.807273,86.9259209 L123.807273,46.8411299 L123.807273,46.8411299 Z"></path>
    </g>
</svg>

<svg viewBox="0 0 256 255" xmlns="http://www.w3.org/2000/svg"><g transform="matrix(1 0 0-1 0 255)"><g fill="#8A4182"><path d="M118.26 149.66h19.79l4.91 6.73v52.72h-29.63v-52.74l4.91-6.73"/><path d="M105.5 126.14l6.11 18.71 -4.92 6.73 -50.44 16.29 -9.16-28.02 50.43-16.3 7.95 2.57"/><path d="M124.06 106.81l-16.02 11.57 -7.96-2.58 -31.17-42.66 23.96-17.32 31.17 42.66v8.31"/><path d="M148.28 118.38l-16.02-11.57 0-8.32 31.16-42.66 23.96 17.31 -31.18 42.66 -7.96 2.57"/><path d="M144.7 144.86l6.11-18.72 7.95-2.57 50.43 16.29 -9.16 28.01 -50.44-16.3 -4.92-6.73"/><path d="M128.17 254.89C57.7 254.89.38 197.89.38 127.84 .38 57.76 57.7.75 128.16.75c70.45 0 127.77 57 127.77 127.08 0 70.05-57.32 127.04-127.78 127.04v0 0Zm0-25.73c56.26 0 101.9-45.36 101.9-101.33 0-55.99-45.64-101.36-101.9-101.36 -56.29 0-101.92 45.37-101.92 101.35 0 55.96 45.62 101.32 101.91 101.32v0Z"/><path d="M205.56 99.6l-38.34 12.38 2.53 7.76 38.33-12.39 -2.54-7.77"/><path d="M156.66 160.8l-6.65 4.79 23.69 32.42 6.64-4.8 -23.7-32.43"/><path d="M100.07 161.1l-23.69 32.43 6.64 4.79 23.68-32.43 -6.65-4.8"/><path d="M50.6 100.09l-2.54 7.76 38.33 12.38 2.53-7.77 -38.34-12.39"/><path d="M123.8 46.84h8.21v40.08h-8.22V46.83v0Z"/></g></g></svg>
